X: 113
T: Schellen-Neuner [Ab]
R: zwiefacher
M: 34/44
L: 1/8
K: Ab
   [AC][BE] \
| "Ab"[c2A2][A2]  [c4A4] | [e2c2][c2A2] [e4c4] \
| "Eb7"[d2B2]   [GB][fd] [ec][dB] | "Ab"[cA][dB] [cA][BG] [AF][BG] \
"I"\
| "Ab"[c2A2][A2]  [c4A4] | [e2c2][c2A2] [e4c4] \
| "Eb7"[dB][cA] [BG][AF] [GE][BG] | "Ab"[A2A2] z2 :|
|: Ac \
| "Ab"[e2c2][c2A2] [e4c4] | "Eb7"[d2B2][B2G2] [d4B4] \
| "Ab"[c2A2][A2F2] [c4A4] | "Eb7"[B2G2][G2E2] [B4G4] \
| "Ab"[c2A2][A2]   [c4A4] | [e2c2][c2A2] [e4c4] \
|1"Eb7"[dB][cA] [BG][AF] [GE][BG] | "Ab"[A2C2] z2 \
:|2 "Eb7"[fd][ec] [=d=B][ec] [_d_B][BG] | "Ab"[A2A2] z2 :|


%%sep 1 1 500

